app/assets/images/bockinbusiness/logo.svg

<svg width="306" height="78" viewBox="0 0 306 78" fill="none" xmlns="http://www.w3.org/2000/svg">
<path fill-rule="evenodd" clip-rule="evenodd" d="M40 0H0V40H40V0ZM18.7002 29H13.4502V11.1H21.7502C26.4502 11.1 29.3752 13.6 29.3752 17.45C29.3752 21.3 26.4252 23.8 21.7002 23.8H18.7002V29ZM18.7002 14.9V20H21.1502C22.9252 20 24.1002 19 24.1002 17.45C24.1002 15.9 22.9252 14.9 21.1502 14.9H18.7002Z" fill="#AA212D"/>
<path fill-rule="evenodd" clip-rule="evenodd" d="M76 2H40V38H76V2ZM38 0V40H78V0H38Z" fill="#AA212D"/>
<path d="M51.4248 29H56.6998V23.1H57.9748L62.4248 29H68.2998L63.0248 22.7L63.2248 22.65C65.8248 22.175 67.7248 20.125 67.7248 17.2C67.7248 13.55 64.8248 11.1 60.4498 11.1H51.4248V29ZM56.6998 19.675V14.9H59.5248C61.1998 14.9 62.4498 15.8 62.4498 17.275C62.4498 18.775 61.1998 19.675 59.5248 19.675H56.6998Z" fill="#AA212D"/>
<path fill-rule="evenodd" clip-rule="evenodd" d="M114 2H78V38H114V2ZM76 0V40H116V0H76Z" fill="#AA212D"/>
<path d="M89.4248 29H103.45V24.85H94.5248V21.675H102.725V18.25H94.5248V15.25H103.2V11.1H89.4248V29Z" fill="#AA212D"/>
<path fill-rule="evenodd" clip-rule="evenodd" d="M152 2H116V38H152V2ZM114 0V40H154V0H114Z" fill="#AA212D"/>
<path d="M133.95 29.375C138.95 29.375 142.225 27.075 142.225 23.525C142.225 19.2 138.1 18.55 135.05 18.1C132.975 17.8 131.2 17.575 131.2 16.225C131.2 15.225 132.2 14.525 133.875 14.525C135.675 14.525 136.85 15.425 136.85 17H141.625C141.625 13.3 138.45 10.75 133.7 10.75C128.975 10.75 125.925 13.05 125.925 16.6C125.925 21.2 130.575 21.575 133.65 22C135.475 22.25 136.95 22.55 136.95 23.85C136.95 24.95 135.85 25.575 134.15 25.575C132 25.575 130.775 24.6 130.75 23.1H125.8C125.8 26.8 129.05 29.375 133.95 29.375Z" fill="#AA212D"/>
<path fill-rule="evenodd" clip-rule="evenodd" d="M190 2H154V38H190V2ZM152 0V40H192V0H152Z" fill="#AA212D"/>
<path d="M165.425 29H179.45V24.85H170.525V21.675H178.725V18.25H170.525V15.25H179.2V11.1H165.425V29Z" fill="#AA212D"/>
<path fill-rule="evenodd" clip-rule="evenodd" d="M228 2H192V38H228V2ZM190 0V40H230V0H190Z" fill="#AA212D"/>
<path d="M202.425 29H207.7V23.1H208.975L213.425 29H219.3L214.025 22.7L214.225 22.65C216.825 22.175 218.725 20.125 218.725 17.2C218.725 13.55 215.825 11.1 211.45 11.1H202.425V29ZM207.7 19.675V14.9H210.525C212.2 14.9 213.45 15.8 213.45 17.275C213.45 18.775 212.2 19.675 210.525 19.675H207.7Z" fill="#AA212D"/>
<path fill-rule="evenodd" clip-rule="evenodd" d="M266 2H230V38H266V2ZM228 0V40H268V0H228Z" fill="#AA212D"/>
<path d="M244.525 29H252.75L258.05 11.1H252.6L248.775 25.125H248.525L244.65 11.1H239.25L244.525 29Z" fill="#AA212D"/>
<path fill-rule="evenodd" clip-rule="evenodd" d="M304 2H268V38H304V2ZM266 0V40H306V0H266Z" fill="#AA212D"/>
<path d="M279.425 29H293.45V24.85H284.525V21.675H292.725V18.25H284.525V15.25H293.2V11.1H279.425V29Z" fill="#AA212D"/>
<path fill-rule="evenodd" clip-rule="evenodd" d="M76 40H40V76H76V40ZM38 38V78H78V38H38Z" fill="#AA212D"/>
<path d="M63.375 50C61.206 50 59.3798 51.3484 58.5 52.1333C57.6202 51.3484 55.794 50 53.625 50C50.523 50 48 52.5145 48 55.6061C48 57.542 49.7738 59.3039 49.845 59.3741L58.5 68L67.1505 59.3786C67.2263 59.3039 69 57.542 69 55.6061C69 52.5145 66.477 50 63.375 50Z" fill="#AA212D"/>
<path fill-rule="evenodd" clip-rule="evenodd" d="M230 38H76V78H230V38ZM134.961 63.1284H140.111V65.949H131.382V50.3524H140.111V53.1762H134.961V56.5449H138.666V59.1443H134.961V63.1284ZM110.985 66.2438C114.466 66.2438 116.691 64.4874 116.691 59.8719V50.3524H113.112V59.8655C113.112 61.9104 112.554 62.9393 110.988 62.9393C109.423 62.9393 108.864 61.9104 108.864 59.8655V50.3524H105.279V59.8751C105.279 64.4874 107.507 66.2438 110.985 66.2438ZM146.755 61.1165C146.433 61.2319 146.092 61.3473 145.738 61.4626V65.9467H142.156V50.3566L147.323 50.3598C151.485 50.3598 152.615 52.8375 152.615 55.4112C152.615 57.0619 151.94 58.4369 149.885 59.687L153.486 65.9467H150.706C149.775 65.9467 149.273 65.4082 148.714 64.5236L146.755 61.1165ZM146.587 53.1612H145.741V58.9081C148.613 57.9369 149.09 57.0779 149.09 55.4112C149.09 53.5843 147.774 53.1612 146.587 53.1612ZM177.141 50.0097C172.789 50.0097 169.996 53.6283 169.996 58.0932C169.996 62.5581 172.789 66.1768 177.141 66.1768C181.493 66.1768 184.286 62.5581 184.286 58.0932C184.289 53.6283 181.493 50.0097 177.141 50.0097ZM177.141 63.0581C174.938 63.0581 173.521 60.8433 173.521 58.1092C173.521 55.3752 174.938 53.1604 177.141 53.1604C179.347 53.1604 180.761 55.3784 180.761 58.1092C180.761 60.8433 179.344 63.0581 177.141 63.0581ZM93.1673 61.943C95.0292 62.9398 96.5977 63.3148 97.655 63.2732C98.9552 63.2187 99.4412 62.552 99.4381 61.7347C99.4381 60.4529 98.2875 60.0285 96.9592 59.5387C95.1454 58.8697 93 58.0785 93 54.8146C93 52.5581 94.7894 50.1542 98.1378 50.0132C100.483 49.917 101.71 50.3594 102.79 50.9075V53.9973C101.761 53.3787 100.479 52.7248 98.9552 52.7889C97.4309 52.853 96.8344 53.7857 96.8344 54.5261C96.8344 55.6817 97.941 56.0681 99.2444 56.5232C101.112 57.1753 103.383 57.9683 103.383 61.3661C103.383 64.0296 101.486 66.1066 98.2483 66.2412C96.4147 66.3181 94.275 65.8854 93.1673 65.1578V61.943ZM211.14 50.2824H207.286L202.919 57.1928V50.2824H199.337V65.8726H202.919V58.5134L206.901 64.4526C207.536 65.395 207.962 65.8726 208.896 65.8726H212.004L206.387 57.5134L211.14 50.2824ZM168.103 54.5517C168.103 55.228 167.879 56.7794 166.588 57.6159C168.245 58.2249 169.053 59.5807 169.056 61.3564C169.056 63.7635 167.355 65.8726 163.915 65.8726H157.628V50.2824H163.066C165.606 50.2824 168.103 51.5677 168.103 54.5517ZM162.687 52.7953H161.207V56.7633H162.968C164.394 56.7633 164.625 55.6287 164.625 54.712C164.625 53.6351 164.192 52.7953 162.687 52.7953ZM161.207 63.2347H163.22C164.439 63.2347 165.36 62.7122 165.36 61.0359C165.36 59.3564 164.353 59.0711 163.116 59.0711H161.207V63.2347ZM185.731 58.0868C185.731 62.6253 188.928 66.1767 193.76 66.1767C194.984 66.1767 196.121 65.9908 197.282 65.2696V61.8561C196.029 62.7119 194.805 62.9811 193.757 62.9811C191.346 62.9811 189.465 61.215 189.465 58.0868C189.465 54.9585 191.346 53.1924 193.757 53.1924C194.805 53.1924 196.029 53.4616 197.282 54.3206V50.9071C196.121 50.1859 194.984 50 193.76 50C188.928 49.9968 185.731 53.5514 185.731 58.0868ZM124.354 50.3524C128.519 50.3524 129.646 52.8268 129.646 55.4006C129.646 57.6315 128.374 59.6379 124.202 61.2053L122.769 61.7822V65.9458H119.187V50.3524H124.354ZM122.769 58.968L124.202 58.3815C125.802 57.5898 126.118 56.7372 126.118 55.4006C126.118 53.5769 124.802 53.1538 123.615 53.1538H122.769V58.968Z" fill="#AA212D"/>
</svg>

<svg width="306" height="78" fill="none" xmlns="http://www.w3.org/2000/svg"><path fill-rule="evenodd" clip-rule="evenodd" d="M40 0H0v40h40V0zM18.7 29h-5.25V11.1h8.3c4.7 0 7.625 2.5 7.625 6.35 0 3.85-2.95 6.35-7.675 6.35h-3V29zm0-14.1V20h2.45c1.775 0 2.95-1 2.95-2.55 0-1.55-1.175-2.55-2.95-2.55H18.7z" fill="#AA212D"/><path fill-rule="evenodd" clip-rule="evenodd" d="M76 2H40v36h36V2zM38 0v40h40V0H38z" fill="#AA212D"/><path d="M51.425 29H56.7v-5.9h1.275l4.45 5.9H68.3l-5.275-6.3.2-.05c2.6-.475 4.5-2.525 4.5-5.45 0-3.65-2.9-6.1-7.275-6.1h-9.025V29zm5.275-9.325V14.9h2.825c1.675 0 2.925.9 2.925 2.375 0 1.5-1.25 2.4-2.925 2.4H56.7z" fill="#AA212D"/><path fill-rule="evenodd" clip-rule="evenodd" d="M114 2H78v36h36V2zM76 0v40h40V0H76z" fill="#AA212D"/><path d="M89.425 29h14.025v-4.15h-8.925v-3.175h8.2V18.25h-8.2v-3h8.675V11.1H89.425V29z" fill="#AA212D"/><path fill-rule="evenodd" clip-rule="evenodd" d="M152 2h-36v36h36V2zm-38-2v40h40V0h-40z" fill="#AA212D"/><path d="M133.95 29.375c5 0 8.275-2.3 8.275-5.85 0-4.325-4.125-4.975-7.175-5.425-2.075-.3-3.85-.525-3.85-1.875 0-1 1-1.7 2.675-1.7 1.8 0 2.975.9 2.975 2.475h4.775c0-3.7-3.175-6.25-7.925-6.25-4.725 0-7.775 2.3-7.775 5.85 0 4.6 4.65 4.975 7.725 5.4 1.825.25 3.3.55 3.3 1.85 0 1.1-1.1 1.725-2.8 1.725-2.15 0-3.375-.975-3.4-2.475h-4.95c0 3.7 3.25 6.275 8.15 6.275z" fill="#AA212D"/><path fill-rule="evenodd" clip-rule="evenodd" d="M190 2h-36v36h36V2zm-38-2v40h40V0h-40z" fill="#AA212D"/><path d="M165.425 29h14.025v-4.15h-8.925v-3.175h8.2V18.25h-8.2v-3h8.675V11.1h-13.775V29z" fill="#AA212D"/><path fill-rule="evenodd" clip-rule="evenodd" d="M228 2h-36v36h36V2zm-38-2v40h40V0h-40z" fill="#AA212D"/><path d="M202.425 29h5.275v-5.9h1.275l4.45 5.9h5.875l-5.275-6.3.2-.05c2.6-.475 4.5-2.525 4.5-5.45 0-3.65-2.9-6.1-7.275-6.1h-9.025V29zm5.275-9.325V14.9h2.825c1.675 0 2.925.9 2.925 2.375 0 1.5-1.25 2.4-2.925 2.4H207.7z" fill="#AA212D"/><path fill-rule="evenodd" clip-rule="evenodd" d="M266 2h-36v36h36V2zm-38-2v40h40V0h-40z" fill="#AA212D"/><path d="M244.525 29h8.225l5.3-17.9h-5.45l-3.825 14.025h-.25L244.65 11.1h-5.4l5.275 17.9z" fill="#AA212D"/><path fill-rule="evenodd" clip-rule="evenodd" d="M304 2h-36v36h36V2zm-38-2v40h40V0h-40z" fill="#AA212D"/><path d="M279.425 29h14.025v-4.15h-8.925v-3.175h8.2V18.25h-8.2v-3h8.675V11.1h-13.775V29z" fill="#AA212D"/><path fill-rule="evenodd" clip-rule="evenodd" d="M76 40H40v36h36V40zm-38-2v40h40V38H38z" fill="#AA212D"/><path d="M63.375 50c-2.169 0-3.995 1.348-4.875 2.133-.88-.785-2.706-2.133-4.875-2.133C50.523 50 48 52.514 48 55.606c0 1.936 1.774 3.698 1.845 3.768L58.5 68l8.65-8.621c.076-.075 1.85-1.837 1.85-3.773C69 52.514 66.477 50 63.375 50z" fill="#AA212D"/><path fill-rule="evenodd" clip-rule="evenodd" d="M230 38H76v40h154V38zm-95.039 25.128h5.15v2.821h-8.729V50.352h8.729v2.824h-5.15v3.369h3.705v2.6h-3.705v3.983zm-23.976 3.116c3.481 0 5.706-1.757 5.706-6.372v-9.52h-3.579v9.514c0 2.044-.558 3.073-2.124 3.073-1.565 0-2.124-1.029-2.124-3.074v-9.513h-3.585v9.523c0 4.612 2.228 6.369 5.706 6.369zm35.77-5.127c-.322.115-.663.23-1.017.346v4.484h-3.582v-15.59l5.167.003c4.162 0 5.292 2.477 5.292 5.051 0 1.65-.675 3.026-2.73 4.276l3.601 6.26h-2.78c-.931 0-1.433-.539-1.992-1.423l-1.959-3.407zm-.168-7.956h-.846v5.747c2.872-.971 3.349-1.83 3.349-3.497 0-1.827-1.316-2.25-2.503-2.25zm30.554-3.151c-4.352 0-7.145 3.618-7.145 8.083s2.793 8.084 7.145 8.084c4.352 0 7.145-3.619 7.145-8.084.003-4.465-2.793-8.083-7.145-8.083zm0 13.048c-2.203 0-3.62-2.215-3.62-4.949s1.417-4.949 3.62-4.949c2.206 0 3.62 2.218 3.62 4.95 0 2.733-1.417 4.948-3.62 4.948zm-83.974-1.115c1.862.997 3.43 1.372 4.488 1.33 1.3-.054 1.786-.721 1.783-1.538 0-1.282-1.15-1.706-2.479-2.196-1.814-.67-3.959-1.46-3.959-4.724 0-2.257 1.79-4.66 5.138-4.802 2.345-.096 3.572.346 4.652.895v3.09c-1.029-.62-2.311-1.273-3.835-1.21-1.524.065-2.12.998-2.12 1.738 0 1.156 1.106 1.542 2.41 1.997 1.867.652 4.138 1.445 4.138 4.843 0 2.664-1.897 4.74-5.135 4.875-1.833.077-3.973-.356-5.08-1.083v-3.215zm117.973-11.66h-3.854l-4.367 6.91v-6.91h-3.582v15.59h3.582v-7.36l3.982 5.94c.635.942 1.061 1.42 1.995 1.42h3.108l-5.617-8.36 4.753-7.23zm-43.037 4.269c0 .676-.224 2.227-1.515 3.064 1.657.609 2.465 1.965 2.468 3.74 0 2.407-1.701 4.517-5.141 4.517h-6.287v-15.59h5.438c2.54 0 5.037 1.285 5.037 4.269zm-5.416-1.757h-1.48v3.968h1.761c1.426 0 1.657-1.134 1.657-2.051 0-1.077-.433-1.917-1.938-1.917zm-1.48 10.44h2.013c1.219 0 2.14-.523 2.14-2.2 0-1.679-1.007-1.964-2.244-1.964h-1.909v4.164zm24.524-5.148c0 4.538 3.197 8.09 8.029 8.09 1.224 0 2.361-.186 3.522-.907v-3.414c-1.253.856-2.477 1.125-3.525 1.125-2.411 0-4.292-1.766-4.292-4.894 0-3.129 1.881-4.895 4.292-4.895 1.048 0 2.272.27 3.525 1.129v-3.414c-1.161-.721-2.298-.907-3.522-.907-4.832-.003-8.029 3.551-8.029 8.087zm-61.377-7.735c4.165 0 5.292 2.475 5.292 5.049 0 2.23-1.272 4.237-5.444 5.804l-1.433.577v4.164h-3.582V50.352h5.167zm-1.585 8.616l1.433-.587c1.6-.791 1.916-1.644 1.916-2.98 0-1.824-1.316-2.247-2.503-2.247h-.846v5.814z" fill="#AA212D"/></svg>
